icons/quarkus.svg

<?xml version="1.0" encoding="UTF-8"?>
<svg width="512px" height="77px" viewBox="0 0 512 77" version="1.1" xmlns="http://www.w3.org/2000/svg" xmlns:xlink="http://www.w3.org/1999/xlink" preserveAspectRatio="xMidYMid">
    <g>
        <path d="M136.581408,7.61189358 C144.390944,7.61189358 150.488472,10.0757433 154.873991,15.0034429 C159.25951,19.9311424 161.452269,26.7337715 161.452269,35.4113302 C161.452269,42.3288054 160.051414,48.0804591 157.249703,52.6662911 C154.587801,57.134245 150.359653,60.452791 145.387167,61.9768388 L158.327387,75.3537402 L149.149045,75.3537402 L138.552488,63.1586854 L136.50529,63.2348044 C128.49277,63.2348044 122.313782,60.8016693 117.968326,55.9353991 C113.622869,51.0691288 111.44747,44.2023996 111.442128,35.3352113 C111.442128,26.5401356 113.624204,19.7228169 117.988357,14.8832551 C122.352509,10.0436933 128.550193,7.6199061 136.581408,7.61189358 Z M510.625853,10.6005634 L508.658779,16.069108 C504.166427,14.1995201 499.802274,13.2647261 495.566322,13.2647261 C492.21976,13.2647261 489.605008,13.9791758 487.722066,15.4080751 C485.839124,16.8369744 484.896317,18.820073 484.893646,21.3573709 C484.893646,23.2269588 485.240856,24.7600209 485.935274,25.9565571 C486.629692,27.1530934 487.800856,28.2494731 489.448764,29.2456964 C491.099343,30.2419197 493.621951,31.3449765 497.016588,32.554867 C502.721502,34.5740219 506.644966,36.7414085 508.78698,39.0570266 C510.928993,41.3726448 512,44.3933646 512,48.1191862 C512,52.8732812 510.263954,56.5804069 506.791862,59.2405634 C503.31977,61.9007199 498.608409,63.2361398 492.657778,63.2468232 C486.213041,63.2468232 481.254627,62.4215336 477.782535,60.7709546 L477.782535,54.6974648 C480.135256,55.6710676 482.577263,56.4130619 485.073928,56.9129264 C487.642383,57.446517 490.258833,57.7150086 492.882128,57.7141784 C497.096714,57.7141784 500.269671,56.9129264 502.401002,55.3104225 C504.532332,53.7079186 505.600668,51.4977986 505.606009,48.6800626 C505.606009,46.8104747 505.228086,45.2774126 504.472238,44.0808764 C503.71639,42.8843401 502.453083,41.7812833 500.682316,40.7717058 C498.906208,39.7621283 496.209995,38.616338 492.593678,37.3343349 C487.535107,35.5395305 483.921461,33.4028586 481.752739,30.9243192 C479.584017,28.4457799 478.499656,25.2314241 478.499656,21.281252 C478.499656,17.1200835 480.074116,13.8069066 483.223036,11.3417214 C486.371956,8.87653625 490.535796,7.64572081 495.714554,7.64794992 C500.835559,7.59179636 505.912671,8.59712452 510.625853,10.6005634 Z M188.48651,8.47323944 L188.48651,43.7283255 C188.48651,48.2367032 189.72578,51.6967762 192.204319,54.1085446 C194.682859,56.520313 198.32722,57.7221909 203.137402,57.7141784 C207.720563,57.7141784 211.252749,56.5016171 213.733959,54.0764945 C216.21517,51.6513719 217.454439,48.181951 217.451768,43.6682316 L217.451768,8.47323944 L223.773646,8.47323944 L223.773646,43.427856 C223.773646,49.5841419 221.904058,54.4250391 218.164883,57.9505477 C214.425707,61.4760563 209.276328,63.2374752 202.716745,63.2348074 C196.170516,63.2348074 191.106604,61.4600313 187.525008,57.9104851 C183.943412,54.360939 182.15662,49.4799791 182.164605,43.2676056 L182.164605,8.47323944 L188.48651,8.47323944 Z M422.500156,8.47323944 L422.500156,43.7283255 C422.500156,48.2367032 423.739426,51.6967762 426.217966,54.1085446 C428.696505,56.520313 432.340866,57.7221909 437.151049,57.7141784 C441.736881,57.7141784 445.270402,56.5016171 447.751612,54.0764945 C450.232822,51.6513719 451.472092,48.1712676 451.469421,43.6361815 L451.469421,8.47323944 L457.791299,8.47323944 L457.791299,43.427856 C457.791299,49.5841419 455.921711,54.4250391 452.182535,57.9505477 C448.443359,61.4760563 443.299322,63.2374752 436.750423,63.2348074 C430.206865,63.2348074 425.142953,61.4600313 421.558685,57.9104851 C417.974418,54.360939 416.180949,49.4799791 416.178279,43.2676056 L416.178279,8.47323944 L422.500156,8.47323944 Z M266.640626,8.25289515 L288.022034,62.4976526 L281.479812,62.4976526 L274.709233,45.3107981 L252.919186,45.3107981 L246.224726,62.4976526 L239.81471,62.4976526 L261.324319,8.25289515 L266.640626,8.25289515 Z M319.551299,8.47323944 C326.228399,8.47323944 331.154763,9.74188837 334.330391,12.2791862 C337.50602,14.8164841 339.099176,18.6344497 339.109859,23.7330829 C339.109859,30.8749087 335.465498,35.7037872 328.176776,38.2197183 L342.935837,62.4976526 L335.464163,62.4976526 L322.299593,40.034554 L310.961878,40.0305477 L310.961878,62.4976526 L304.635994,62.4976526 L304.635994,8.47323944 L319.551299,8.47323944 Z M399.307919,8.46522692 L377.441753,31.937903 L400.125196,62.4976526 L392.685571,62.4976526 L372.866604,36.2967136 L367.177715,41.3205634 L367.177715,62.4976526 L360.855837,62.4976526 L360.855837,8.47323944 L367.177715,8.47323944 L367.177715,35.2550861 L391.832238,8.46522692 L399.307919,8.46522692 Z M136.581408,13.2406886 C130.555994,13.2406886 125.975503,15.1316432 122.839937,18.9135524 C119.704371,22.6954617 118.136588,28.1947209 118.136588,35.4113302 L118.128576,35.4113302 C118.128576,42.7267606 119.696359,48.2754304 122.831925,52.0573396 C125.967491,55.8392488 130.522608,57.728868 136.497277,57.7262 C142.522692,57.7262 147.072467,55.8419197 150.146604,52.0733646 C153.220741,48.3048096 154.757809,42.7507981 154.757809,35.4113302 C154.757809,28.143975 153.226082,22.6326969 150.162629,18.8774961 C147.099176,15.1222953 142.572102,13.2433594 136.581408,13.2406886 Z M263.884319,15.1236307 C263.256929,17.7661414 262.474352,20.3693815 261.540657,22.9198122 L255.130642,39.6579656 L272.738153,39.6619718 L266.416275,22.9198122 C265.596328,20.804507 264.752342,18.2057799 263.884319,15.1236307 Z M319.178717,13.9778404 L310.961878,13.9778404 L310.961878,34.6341158 L319.623412,34.6341158 C324.086385,34.6341158 327.359499,33.7527387 329.442754,31.9899844 C331.526009,30.22723 332.566302,27.5857694 332.563636,24.0656025 C332.563636,20.4946896 331.504643,17.9213354 329.386667,16.3455399 C327.268691,14.7697444 323.866041,13.9805112 319.178717,13.9778404 Z" fill="#091313"></path>
        <path d="M63.8998435,0 C70.9068491,0.0242026671 76.5799038,5.7008366 76.599687,12.707856 L76.599687,12.707856 L76.599687,63.8998435 C76.5798811,70.9099783 70.9019658,76.5878937 63.891831,76.6076995 L63.891831,76.6076995 L56.2799374,76.6076995 L52.7904851,68.1344601 L63.8998435,68.1344601 C66.2259282,68.1042474 68.1042474,66.2259282 68.1344601,63.8998435 L68.1344601,63.8998435 L68.1344601,12.707856 C68.1042474,10.3817713 66.2259282,8.50345213 63.8998435,8.47323944 L63.8998435,8.47323944 L12.707856,8.47323944 C10.3817713,8.50345213 8.50345213,10.3817713 8.47323944,12.707856 L8.47323944,12.707856 L8.47323944,63.8998435 C8.50345213,66.2259282 10.3817713,68.1042474 12.707856,68.1344601 L12.707856,68.1344601 L31.4411268,68.1344601 L38.3038498,53.6237872 L47.7666354,76.6076995 L12.707856,76.6076995 C5.69772119,76.5878937 0.0198058675,70.9099783 0,63.8998435 L0,63.8998435 L0,12.707856 C0.0198058675,5.69772119 5.69772119,0.0198058675 12.707856,0 L12.707856,0 Z M50.7392801,41.8093271 L50.7392801,55.4266041 L38.9448513,48.6199687 L50.7392801,41.8093271 Z M25.8684194,28.1920501 L25.8684194,41.8093271 L14.0739906,34.9986854 L25.8684194,28.1920501 Z M50.0982786,13.4610329 L50.0982786,27.0783099 L38.3038498,20.2676682 L50.0982786,13.4610329 Z" fill="#4695EB"></path>
        <path d="M25.8684194,41.8093271 L37.6628482,48.6199687 L25.8684194,55.4266041 L25.8684194,41.8093271 Z M50.7392801,28.1920501 L62.5337089,34.9986854 L50.7392801,41.8093271 L50.7392801,28.1920501 Z M26.509421,13.4610329 L38.3038498,20.2676682 L26.509421,27.0783099 L26.509421,13.4610329 Z" fill="#FF004A"></path>
        <path d="M25.8684194,28.1920501 L37.6628482,34.9986854 L37.6628482,48.6199687 L25.8684194,41.8093271 L25.8684194,28.1920501 Z M50.7392801,28.1920501 L50.7392801,41.8093271 L38.9448513,48.6199687 L38.9448513,34.9986854 L50.7392801,28.1920501 Z M38.3038498,20.2676682 L50.0982786,27.0783099 L38.3038498,33.8889515 L26.509421,27.0783099 L38.3038498,20.2676682 Z" fill="#091313"></path>
    </g>
</svg>

<svg xmlns="http://www.w3.org/2000/svg" viewBox="0 0 512 76.608">
  <path fill="#091313" d="M136.581 7.612c7.81 0 13.907 2.464 18.293 7.391 4.386 4.928 6.578 11.73 6.578 20.408 0 6.918-1.4 12.67-4.202 17.255a20.957 20.957 0 0 1-11.863 9.31l12.94 13.378h-9.178l-10.597-12.195-2.047.076c-8.012 0-14.191-2.433-18.537-7.3-4.345-4.866-6.52-11.733-6.526-20.6 0-8.795 2.182-15.612 6.546-20.452 4.365-4.84 10.562-7.263 18.593-7.271zM510.626 10.6l-1.967 5.468c-4.493-1.87-8.857-2.804-13.093-2.804-3.346 0-5.961.714-7.844 2.143-1.883 1.429-2.826 3.412-2.828 5.95 0 1.869.347 3.402 1.041 4.599.695 1.196 1.866 2.292 3.514 3.289 1.65.996 4.173 2.099 7.568 3.309 5.705 2.019 9.628 4.186 11.77 6.502 2.142 2.316 3.213 5.336 3.213 9.062 0 4.754-1.736 8.461-5.208 11.122-3.472 2.66-8.184 3.995-14.134 4.006-6.445 0-11.403-.825-14.875-2.476v-6.074a39.19 39.19 0 0 0 7.29 2.216c2.57.534 5.186.802 7.81.801 4.214 0 7.387-.801 9.518-2.404 2.131-1.602 3.2-3.812 3.205-6.63 0-1.87-.378-3.403-1.134-4.6-.756-1.196-2.019-2.299-3.79-3.308-1.776-1.01-4.472-2.156-8.088-3.438-5.059-1.794-8.673-3.931-10.841-6.41-2.169-2.478-3.253-5.693-3.253-9.643 0-4.16 1.574-7.474 4.723-9.94 3.149-2.464 7.313-3.695 12.492-3.693a37.078 37.078 0 0 1 14.91 2.953zm-322.14-2.128v35.255c0 4.509 1.24 7.969 3.718 10.38 2.479 2.412 6.123 3.614 10.933 3.606 4.584 0 8.116-1.212 10.597-3.638 2.481-2.425 3.72-5.894 3.718-10.408V8.473h6.322v34.955c0 6.156-1.87 10.997-5.61 14.523-3.738 3.525-8.888 5.286-15.447 5.284-6.546 0-11.61-1.775-15.192-5.325-3.582-3.55-5.368-8.43-5.36-14.642V8.473zm234.014 0v35.255c0 4.509 1.24 7.969 3.718 10.38 2.479 2.412 6.123 3.614 10.933 3.606 4.586 0 8.12-1.212 10.6-3.638 2.482-2.425 3.721-5.905 3.718-10.44V8.473h6.322v34.955c0 6.156-1.87 10.997-5.608 14.523-3.74 3.525-8.884 5.286-15.433 5.284-6.543 0-11.607-1.775-15.191-5.325-3.585-3.55-5.378-8.43-5.38-14.642V8.473zm-155.86-.22 21.382 54.245h-6.542l-6.77-17.187h-21.79l-6.695 17.187h-6.41l21.51-54.245zm52.911.22c6.677 0 11.604 1.269 14.78 3.806 3.175 2.537 4.768 6.355 4.779 11.454 0 7.142-3.645 11.97-10.933 14.487l14.759 24.278h-7.472L322.3 40.035l-11.338-.004v22.467h-6.326V8.473zm79.757-.008-21.866 23.473 22.683 30.56h-7.44l-19.818-26.201-5.69 5.024v21.177h-6.321V8.473h6.322v26.782l24.654-26.79zM136.58 13.241c-6.025 0-10.605 1.89-13.741 5.673-3.136 3.781-4.703 9.28-4.703 16.497h-.008c0 7.316 1.567 12.864 4.703 16.646s7.69 5.672 13.665 5.67c6.026 0 10.575-1.885 13.65-5.654 3.074-3.768 4.61-9.322 4.61-16.662 0-7.267-1.53-12.778-4.594-16.534-3.064-3.755-7.59-5.634-13.582-5.636zm127.303 1.883a69.129 69.129 0 0 1-2.343 7.796l-6.41 16.738 17.607.004-6.322-16.742c-.82-2.115-1.664-4.714-2.532-7.796zm55.295-1.146h-8.217v20.656h8.661c4.463 0 7.737-.881 9.82-2.644 2.083-1.763 3.123-4.404 3.12-7.924 0-3.571-1.058-6.145-3.176-7.72-2.118-1.576-5.521-2.365-10.208-2.368z"/>
  <path fill="#4695eb" d="M63.9 0c7.007.024 12.68 5.7 12.7 12.708V63.9c-.02 7.01-5.698 12.688-12.708 12.708H56.28l-3.49-8.474H63.9a4.29 4.29 0 0 0 4.234-4.234V12.708A4.29 4.29 0 0 0 63.9 8.473H12.708a4.29 4.29 0 0 0-4.235 4.235V63.9a4.29 4.29 0 0 0 4.235 4.234H31.44l6.863-14.51 9.463 22.984h-35.06C5.698 76.588.02 70.91 0 63.9V12.708C.02 5.698 5.698.02 12.708 0zM50.74 41.81v13.617L38.944 48.62zM25.867 28.191v13.617L14.074 35zm24.23-14.731v13.617l-11.794-6.81z"/>
  <path fill="#ff004a" d="m25.868 41.81 11.795 6.81-11.795 6.807zM50.74 28.191l11.795 6.807-11.795 6.81zM26.51 13.461l11.795 6.807-11.795 6.81z"/>
  <path fill="#091313" d="m25.868 28.192 11.795 6.807V48.62l-11.795-6.81zm24.871 0v13.617L38.945 48.62V34.999zm-12.435-7.924 11.794 6.81-11.794 6.811-11.795-6.81z"/>
</svg>
